src/assets/logoipsum-286w.svg

<?xml version="1.0" encoding="UTF-8" standalone="no"?>
<svg
   id="logo-76"
   width="218"
   height="40"
   viewBox="0 0 218 40"
   fill="none"
   version="1.1"
   sodipodi:docname="logoipsum-286w.svg"
   inkscape:version="1.2.2 (732a01da63, 2022-12-09)"
   xmlns:inkscape="http://www.inkscape.org/namespaces/inkscape"
   xmlns:sodipodi="http://sodipodi.sourceforge.net/DTD/sodipodi-0.dtd"
   xmlns="http://www.w3.org/2000/svg"
   xmlns:svg="http://www.w3.org/2000/svg">
  <defs
     id="defs236" />
  <sodipodi:namedview
     id="namedview234"
     pagecolor="#ffffff"
     bordercolor="#000000"
     borderopacity="0.25"
     inkscape:showpageshadow="2"
     inkscape:pageopacity="0.0"
     inkscape:pagecheckerboard="0"
     inkscape:deskcolor="#d1d1d1"
     showgrid="false"
     inkscape:zoom="8.1651376"
     inkscape:cx="109"
     inkscape:cy="19.962921"
     inkscape:window-width="1920"
     inkscape:window-height="1009"
     inkscape:window-x="1358"
     inkscape:window-y="-8"
     inkscape:window-maximized="1"
     inkscape:current-layer="logo-76" />
  <path
     class="ccustom"
     d="M122.355 29.5238H127.018V11.9352H122.355V29.5238ZM122.355 9.19238H127.018V5.00952H122.355V9.19238Z"
     fill="black"
     id="path211"
     style="fill:#f9f9f9" />
  <path
     class="ccustom"
     d="M130.023 35.2838H134.686V27.5352H134.754C135.748 29.0438 137.36 30.0381 139.828 30.0381C144.354 30.0381 147.44 26.4381 147.44 20.7467C147.44 15.2609 144.457 11.4552 139.794 11.4552C137.394 11.4552 135.748 12.5867 134.617 14.1295H134.514V11.9352H130.023V35.2838ZM138.834 26.1638C136.057 26.1638 134.583 24.0724 134.583 20.8838C134.583 17.7295 135.748 15.2267 138.663 15.2267C141.543 15.2267 142.708 17.5581 142.708 20.8838C142.708 24.2095 141.2 26.1638 138.834 26.1638Z"
     fill="black"
     id="path213"
     style="fill:#f9f9f9" />
  <path
     class="ccustom"
     d="M156.741 30.0381C161.13 30.0381 164.147 27.9124 164.147 24.3809C164.147 20.2667 160.89 19.4438 157.941 18.8267C155.438 18.3124 153.107 18.1752 153.107 16.6667C153.107 15.3981 154.307 14.7124 156.124 14.7124C158.113 14.7124 159.313 15.3981 159.518 17.2838H163.735C163.393 13.7524 160.821 11.4552 156.193 11.4552C152.181 11.4552 149.027 13.2724 149.027 17.0781C149.027 20.9181 152.113 21.7752 155.267 22.3924C157.667 22.8724 159.895 23.0438 159.895 24.7238C159.895 25.9581 158.73 26.7467 156.673 26.7467C154.581 26.7467 153.141 25.8552 152.833 23.8324H148.513C148.787 27.5695 151.633 30.0381 156.741 30.0381Z"
     fill="black"
     id="path215"
     style="fill:#f9f9f9" />
  <path
     class="ccustom"
     d="M181.85 29.5238V11.9352H177.187V22.0838C177.187 24.4152 175.85 26.0609 173.656 26.0609C171.667 26.0609 170.742 24.9295 170.742 22.8724V11.9352H166.113V23.6609C166.113 27.5009 168.307 30.0038 172.216 30.0038C174.685 30.0038 176.056 29.0781 177.256 27.4667H177.359V29.5238H181.85Z"
     fill="black"
     id="path217"
     style="fill:#f9f9f9" />
  <path
     class="ccustom"
     d="M184.866 29.5238H189.529V19.3067C189.529 16.9752 190.798 15.4667 192.684 15.4667C194.398 15.4667 195.392 16.4952 195.392 18.4838V29.5238H200.055V19.3067C200.055 16.9752 201.255 15.4667 203.209 15.4667C204.924 15.4667 205.918 16.4952 205.918 18.4838V29.5238H210.581V17.6952C210.581 13.8552 208.489 11.4552 204.786 11.4552C202.558 11.4552 200.706 12.6209 199.506 14.5409H199.438C198.581 12.6895 196.798 11.4552 194.569 11.4552C192.135 11.4552 190.421 12.6895 189.461 14.3009H189.358V11.9352H184.866V29.5238Z"
     fill="black"
     id="path219"
     style="fill:#f9f9f9" />
  <path
     class="ccustom"
     d="M0.824158 29.5238H5.48701V5.00952H0.824158V29.5238Z"
     fill="black"
     id="path221"
     style="fill:#f9f9f9" />
  <path
     class="ccustom"
     d="M16.8884 30.0381C22.3398 30.0381 26.0769 25.9924 26.0769 20.7467C26.0769 15.5009 22.3398 11.4552 16.8884 11.4552C11.4369 11.4552 7.69978 15.5009 7.69978 20.7467C7.69978 25.9924 11.4369 30.0381 16.8884 30.0381ZM16.8884 26.4724C14.0084 26.4724 12.4312 24.1752 12.4312 20.7467C12.4312 17.3181 14.0084 14.9867 16.8884 14.9867C19.7341 14.9867 21.3455 17.3181 21.3455 20.7467C21.3455 24.1752 19.7341 26.4724 16.8884 26.4724Z"
     fill="black"
     id="path223"
     style="fill:#f9f9f9" />
  <path
     class="ccustom"
     d="M35.993 35.5238C38.5987 35.5238 40.8616 34.9067 42.3358 33.5352C43.6387 32.3352 44.4273 30.6552 44.4273 28.1867V11.9352H39.9359V13.7867H39.8673C38.8044 12.3124 37.193 11.4552 34.9987 11.4552C30.5416 11.4552 27.3873 14.8152 27.3873 20.0609C27.3873 25.3752 31.2273 28.4609 35.1359 28.4609C37.3644 28.4609 38.7016 27.5695 39.7301 26.4038H39.833V28.3238C39.833 30.7238 38.5644 31.9924 35.9244 31.9924C33.7644 31.9924 32.7701 31.1352 32.393 30.0381H27.7644C28.2444 33.4667 31.193 35.5238 35.993 35.5238ZM35.9244 24.7238C33.5244 24.7238 31.9473 22.9752 31.9473 19.9924C31.9473 17.0438 33.5244 15.1924 35.8901 15.1924C38.7016 15.1924 40.073 17.3867 40.073 19.9581C40.073 22.5638 38.873 24.7238 35.9244 24.7238Z"
     fill="black"
     id="path225"
     style="fill:#f9f9f9" />
  <path
     class="ccustom"
     d="M55.7611 30.0381C61.2125 30.0381 64.9497 25.9924 64.9497 20.7467C64.9497 15.5009 61.2125 11.4552 55.7611 11.4552C50.3097 11.4552 46.5725 15.5009 46.5725 20.7467C46.5725 25.9924 50.3097 30.0381 55.7611 30.0381ZM55.7611 26.4724C52.8811 26.4724 51.304 24.1752 51.304 20.7467C51.304 17.3181 52.8811 14.9867 55.7611 14.9867C58.6068 14.9867 60.2183 17.3181 60.2183 20.7467C60.2183 24.1752 58.6068 26.4724 55.7611 26.4724Z"
     fill="black"
     id="path227"
     style="fill:#f9f9f9" />
  <path
     class="ccustom"
     d="M212.275 9.04762C212.275 8.25864 212.915 7.61905 213.704 7.61905H216.561C217.35 7.61905 217.99 8.25864 217.99 9.04762C217.99 9.8366 217.35 10.4762 216.561 10.4762H213.704C212.915 10.4762 212.275 9.8366 212.275 9.04762Z"
     fill="black"
     id="path229"
     style="fill:#f9f9f9" />
  <path
     class="ccustom"
     fill-rule="evenodd"
     clip-rule="evenodd"
     d="M93.2277 0C104.273 0 113.228 8.95431 113.228 20C113.228 31.0457 104.273 40 93.2277 40C82.182 40 73.2277 31.0457 73.2277 20C73.2277 8.95431 82.182 0 93.2277 0ZM92.5048 1.49659C90.2231 1.81769 88.0505 3.65108 86.364 6.7174C85.8748 7.60683 85.4334 8.58946 85.0488 9.65044C87.342 9.07417 89.8611 8.73442 92.5048 8.68187V1.49659ZM83.3584 10.1308C83.8368 8.62958 84.4219 7.2484 85.0972 6.02065C85.9332 4.50059 86.9254 3.18795 88.0433 2.17977C81.9644 3.94523 77.1729 8.73679 75.4074 14.8157C76.4156 13.6978 77.7282 12.7056 79.2483 11.8696C80.4761 11.1943 81.8572 10.6091 83.3584 10.1308ZM82.8781 11.8211C82.3018 14.1143 81.9621 16.6334 81.9095 19.2771H74.7242C75.0453 16.9954 76.8787 14.8228 79.9451 13.1364C80.8345 12.6472 81.8171 12.2058 82.8781 11.8211ZM83.3556 19.2771C83.4153 16.392 83.8307 13.6834 84.5179 11.2902C86.9111 10.603 89.6197 10.1876 92.5048 10.1279V13.2508C91.4285 16.0062 89.2333 18.2012 86.4778 19.2771H83.3556ZM81.9095 20.7229H74.7242C75.0453 23.0046 76.8787 25.1771 79.9451 26.8636C80.8345 27.3528 81.8171 27.7942 82.8781 28.1789C82.3018 25.8857 81.9621 23.3666 81.9095 20.7229ZM84.5179 28.7098C83.8307 26.3166 83.4153 23.608 83.3556 20.7229H86.4778C89.2333 21.7988 91.4285 23.9938 92.5048 26.7492V29.8721C89.6197 29.8124 86.9111 29.397 84.5179 28.7098ZM83.3584 29.8692C81.8572 29.3909 80.4761 28.8057 79.2483 28.1304C77.7282 27.2944 76.4156 26.3022 75.4074 25.1843C77.1729 31.2632 81.9644 36.0548 88.0433 37.8202C86.9254 36.812 85.9332 35.4994 85.0972 33.9793C84.4219 32.7516 83.8368 31.3704 83.3584 29.8692ZM92.5048 38.5034C90.2231 38.1823 88.0505 36.3489 86.364 33.2826C85.8748 32.3932 85.4334 31.4105 85.0488 30.3496C87.342 30.9258 89.8611 31.2656 92.5048 31.3181V38.5034ZM98.412 37.8202C99.5299 36.812 100.522 35.4994 101.358 33.9793C102.033 32.7516 102.619 31.3704 103.097 29.8692C104.598 29.3909 105.979 28.8057 107.207 28.1304C108.727 27.2944 110.04 26.3022 111.048 25.1843C109.282 31.2632 104.491 36.0548 98.412 37.8202ZM101.407 30.3496C101.022 31.4105 100.58 32.3932 100.091 33.2826C98.4048 36.3489 96.2322 38.1823 93.9505 38.5034V31.3181C96.5942 31.2656 99.1133 30.9258 101.407 30.3496ZM103.577 28.1789C104.638 27.7942 105.621 27.3528 106.51 26.8636C109.577 25.1772 111.41 23.0046 111.731 20.7229H104.546C104.493 23.3666 104.153 25.8857 103.577 28.1789ZM103.1 20.7229C103.04 23.608 102.625 26.3166 101.937 28.7098C99.5442 29.397 96.8356 29.8124 93.9505 29.8721V26.7515C95.0265 23.9951 97.2222 21.7991 99.9784 20.7229H103.1ZM104.546 19.2771H111.731C111.41 16.9954 109.577 14.8228 106.51 13.1364C105.621 12.6472 104.638 12.2058 103.577 11.8211C104.153 14.1143 104.493 16.6334 104.546 19.2771ZM101.937 11.2902C102.625 13.6834 103.04 16.392 103.1 19.2771H99.9785C97.2222 18.2009 95.0265 16.0049 93.9505 13.2485V10.1279C96.8356 10.1876 99.5442 10.603 101.937 11.2902ZM103.097 10.1308C104.598 10.6091 105.979 11.1943 107.207 11.8696C108.727 12.7056 110.04 13.6978 111.048 14.8157C109.282 8.73679 104.491 3.94523 98.412 2.17977C99.5299 3.18795 100.522 4.50059 101.358 6.02065C102.033 7.2484 102.619 8.62958 103.097 10.1308ZM93.9505 1.49659C96.2322 1.81769 98.4048 3.65108 100.091 6.7174C100.58 7.60684 101.022 8.58946 101.407 9.65044C99.1133 9.07417 96.5942 8.73442 93.9505 8.68187V1.49659Z"
     fill="black"
     id="path231"
     style="fill:#f9f9f9" />
</svg>

<svg xmlns="http://www.w3.org/2000/svg" width="218" height="40" fill="none"><path fill="#000" d="M122.355 29.524h4.663V11.935h-4.663v17.589Zm0-20.332h4.663V5.01h-4.663v4.182ZM130.023 35.284h4.663v-7.749h.068c.994 1.509 2.606 2.503 5.074 2.503 4.526 0 7.612-3.6 7.612-9.291 0-5.486-2.983-9.292-7.646-9.292-2.4 0-4.046 1.132-5.177 2.675h-.103v-2.195h-4.491v23.349Zm8.811-9.12c-2.777 0-4.251-2.092-4.251-5.28 0-3.154 1.165-5.657 4.08-5.657 2.88 0 4.045 2.331 4.045 5.657 0 3.325-1.508 5.28-3.874 5.28ZM156.741 30.038c4.389 0 7.406-2.126 7.406-5.657 0-4.114-3.257-4.937-6.206-5.554-2.503-.515-4.834-.652-4.834-2.16 0-1.269 1.2-1.955 3.017-1.955 1.989 0 3.189.686 3.394 2.572h4.217c-.342-3.532-2.914-5.829-7.542-5.829-4.012 0-7.166 1.817-7.166 5.623 0 3.84 3.086 4.697 6.24 5.314 2.4.48 4.628.652 4.628 2.332 0 1.234-1.165 2.023-3.222 2.023-2.092 0-3.532-.892-3.84-2.915h-4.32c.274 3.738 3.12 6.206 8.228 6.206ZM181.85 29.524V11.935h-4.663v10.149c0 2.331-1.337 3.977-3.531 3.977-1.989 0-2.914-1.131-2.914-3.189V11.935h-4.629v11.726c0 3.84 2.194 6.343 6.103 6.343 2.469 0 3.84-.926 5.04-2.537h.103v2.057h4.491ZM184.866 29.524h4.663V19.307c0-2.332 1.269-3.84 3.155-3.84 1.714 0 2.708 1.028 2.708 3.017v11.04h4.663V19.307c0-2.332 1.2-3.84 3.154-3.84 1.715 0 2.709 1.028 2.709 3.017v11.04h4.663V17.695c0-3.84-2.092-6.24-5.795-6.24-2.228 0-4.08 1.166-5.28 3.086h-.068c-.857-1.851-2.64-3.086-4.869-3.086-2.434 0-4.148 1.235-5.108 2.846h-.103v-2.366h-4.492v17.589ZM.824 29.524h4.663V5.01H.824v24.514ZM16.888 30.038c5.452 0 9.189-4.046 9.189-9.291 0-5.246-3.737-9.292-9.189-9.292-5.451 0-9.188 4.046-9.188 9.292 0 5.245 3.737 9.291 9.188 9.291Zm0-3.566c-2.88 0-4.457-2.297-4.457-5.725 0-3.429 1.577-5.76 4.457-5.76 2.846 0 4.457 2.331 4.457 5.76 0 3.428-1.61 5.725-4.457 5.725ZM35.993 35.524c2.606 0 4.869-.617 6.343-1.989 1.303-1.2 2.091-2.88 2.091-5.348V11.935h-4.491v1.852h-.069c-1.063-1.475-2.674-2.332-4.868-2.332-4.457 0-7.612 3.36-7.612 8.606 0 5.314 3.84 8.4 7.749 8.4 2.228 0 3.566-.891 4.594-2.057h.103v1.92c0 2.4-1.269 3.668-3.909 3.668-2.16 0-3.154-.857-3.531-1.954h-4.629c.48 3.429 3.429 5.486 8.229 5.486Zm-.069-10.8c-2.4 0-3.977-1.749-3.977-4.732 0-2.948 1.577-4.8 3.943-4.8 2.812 0 4.183 2.195 4.183 4.766 0 2.606-1.2 4.766-4.149 4.766ZM55.761 30.038c5.451 0 9.189-4.046 9.189-9.291 0-5.246-3.738-9.292-9.189-9.292-5.451 0-9.189 4.046-9.189 9.292 0 5.245 3.738 9.291 9.19 9.291Zm0-3.566c-2.88 0-4.457-2.297-4.457-5.725 0-3.429 1.577-5.76 4.457-5.76 2.846 0 4.457 2.331 4.457 5.76 0 3.428-1.611 5.725-4.457 5.725ZM212.275 9.048c0-.79.64-1.429 1.429-1.429h2.857a1.429 1.429 0 1 1 0 2.857h-2.857c-.789 0-1.429-.64-1.429-1.428Z" class="ccustom" style="fill:#f9f9f9"/><path fill="#000" fill-rule="evenodd" d="M93.228 0c11.045 0 20 8.954 20 20s-8.955 20-20 20c-11.046 0-20-8.954-20-20s8.954-20 20-20Zm-.723 1.497c-2.282.32-4.454 2.154-6.141 5.22-.49.89-.93 1.872-1.315 2.933 2.293-.576 4.812-.916 7.456-.968V1.497Zm-9.147 8.634a23.095 23.095 0 0 1 1.74-4.11c.835-1.52 1.827-2.833 2.945-3.841a18.593 18.593 0 0 0-12.636 12.636c1.009-1.118 2.321-2.11 3.841-2.946a23.09 23.09 0 0 1 4.11-1.74Zm-.48 1.69c-.576 2.293-.916 4.812-.969 7.456h-7.185c.321-2.282 2.155-4.454 5.221-6.14.89-.49 1.872-.931 2.933-1.316Zm.478 7.456c.06-2.885.475-5.594 1.162-7.987 2.393-.687 5.102-1.102 7.987-1.162v3.123a10.64 10.64 0 0 1-6.027 6.026h-3.122Zm-1.447 1.446h-7.185c.321 2.282 2.155 4.454 5.221 6.14.89.49 1.872.931 2.933 1.316-.576-2.293-.916-4.812-.969-7.456Zm2.609 7.987c-.687-2.393-1.103-5.102-1.162-7.987h3.122a10.64 10.64 0 0 1 6.027 6.026v3.123c-2.885-.06-5.594-.475-7.987-1.162Zm-1.16 1.16a23.09 23.09 0 0 1-4.11-1.74c-1.52-.836-2.832-1.828-3.84-2.946A18.593 18.593 0 0 0 88.042 37.82c-1.118-1.008-2.11-2.32-2.946-3.84a23.093 23.093 0 0 1-1.739-4.11Zm9.147 8.633c-2.282-.32-4.454-2.154-6.141-5.22-.49-.89-.93-1.873-1.315-2.933 2.293.576 4.812.916 7.456.968v7.185Zm5.907-.683c1.118-1.008 2.11-2.32 2.946-3.84a23.086 23.086 0 0 0 1.739-4.11 23.1 23.1 0 0 0 4.11-1.74c1.52-.836 2.833-1.828 3.841-2.946A18.594 18.594 0 0 1 98.412 37.82Zm2.995-7.47a20.882 20.882 0 0 1-1.316 2.933c-1.686 3.066-3.859 4.9-6.14 5.22v-7.185c2.643-.052 5.162-.392 7.456-.968Zm2.17-2.171a20.798 20.798 0 0 0 2.933-1.315c3.067-1.687 4.9-3.86 5.221-6.141h-7.185c-.053 2.644-.393 5.163-.969 7.456Zm-.477-7.456c-.06 2.885-.475 5.594-1.163 7.987-2.393.687-5.101 1.102-7.986 1.162v-3.12a10.641 10.641 0 0 1 6.027-6.03h3.122Zm1.446-1.446h7.185c-.321-2.282-2.154-4.454-5.221-6.14-.889-.49-1.872-.931-2.933-1.316.576 2.293.916 4.812.969 7.456Zm-2.609-7.987c.688 2.393 1.103 5.102 1.163 7.987h-3.121a10.641 10.641 0 0 1-6.028-6.029v-3.12c2.885.06 5.593.475 7.986 1.162Zm1.16-1.16a23.1 23.1 0 0 1 4.11 1.74c1.52.836 2.833 1.828 3.841 2.946A18.594 18.594 0 0 0 98.412 2.18c1.118 1.008 2.11 2.32 2.946 3.84a23.088 23.088 0 0 1 1.739 4.11Zm-9.146-8.633c2.281.32 4.454 2.154 6.14 5.22.489.89.931 1.872 1.316 2.933-2.294-.576-4.813-.916-7.456-.968V1.497Z" class="ccustom" clip-rule="evenodd" style="fill:#f9f9f9"/></svg>
